X: 1
T: Scotch Mary
R: reel
M: 4/4
L: 1/8
K: Ador
|:AB|cEE2 cded|cEEF G2 AB|cEE2 cded|cABG A2:|cd|eaag efed|cdef g2 fg| eaag efed| cABG A2 cd|eaag efed| cdef g2 fg| afge fded| cABG A2|


Tune 96	Setting 12650

